icons/svg/window-multiple.svg

<svg width="24" height="24" viewBox="0 0 24 24" fill="none" xmlns="http://www.w3.org/2000/svg">
<path d="M2.75 6.75C2.75 4.54086 4.54086 2.75 6.75 2.75H14.25C16.4591 2.75 18.25 4.54086 18.25 6.75V14.25C18.25 16.4591 16.4591 18.25 14.25 18.25H6.75C4.54086 18.25 2.75 16.4591 2.75 14.25V6.75Z" stroke="currentColor" stroke-width="1.5" stroke-linecap="round" stroke-linejoin="round"/>
<path d="M21.952 9.48607C21.9029 8.83126 21.8005 8.27513 21.5637 7.76136C21.3055 7.20125 20.9429 6.70141 20.5 6.28589V11.95C20.5 13.5001 20.4995 14.6214 20.4332 15.5057C20.3675 16.3823 20.2402 16.9655 20.0177 17.448C19.4944 18.5832 18.5832 19.4944 17.448 20.0177C16.9655 20.2402 16.3823 20.3675 15.5057 20.4332C14.6214 20.4995 13.5001 20.5 11.95 20.5H6.28589C6.70141 20.9429 7.20125 21.3055 7.76136 21.5637C8.27513 21.8005 8.83126 21.9029 9.48607 21.952C10.1268 22 10.9195 22 11.9198 22H11.981C13.4936 22 14.6709 22 15.6178 21.929C16.5789 21.8569 17.3629 21.7087 18.0759 21.38C19.5355 20.7071 20.7071 19.5355 21.38 18.0759C21.7087 17.3629 21.8569 16.5789 21.929 15.6178C22 14.6709 22 13.4936 22 11.981V11.9198C22 10.9195 22 10.1268 21.952 9.48607Z" fill="currentColor"/>
<path d="M2.75 6.97729H18.25" stroke="currentColor" stroke-width="1.5" stroke-linecap="round" stroke-linejoin="round"/>
</svg>

<svg xmlns="http://www.w3.org/2000/svg" width="24" height="24" fill="none" viewBox="0 0 24 24"><path stroke="currentColor" stroke-linecap="round" stroke-linejoin="round" stroke-width="1.5" d="M2.75 6.75a4 4 0 0 1 4-4h7.5a4 4 0 0 1 4 4v7.5a4 4 0 0 1-4 4h-7.5a4 4 0 0 1-4-4z"/><path fill="currentColor" d="M21.952 9.486c-.05-.655-.152-1.21-.388-1.725A4.8 4.8 0 0 0 20.5 6.286v5.664c0 1.55 0 2.671-.067 3.556-.066.876-.193 1.46-.415 1.942a5.25 5.25 0 0 1-2.57 2.57c-.483.222-1.066.35-1.942.415-.885.067-2.006.067-3.556.067H6.286a4.8 4.8 0 0 0 1.475 1.064c.514.236 1.07.339 1.725.388.64.048 1.433.048 2.434.048h.061c1.513 0 2.69 0 3.637-.071.96-.072 1.745-.22 2.458-.549a6.75 6.75 0 0 0 3.304-3.304c.329-.713.477-1.497.549-2.458C22 14.67 22 13.494 22 11.98v-.061c0-1 0-1.793-.048-2.434"/><path stroke="currentColor" stroke-linecap="round" stroke-linejoin="round" stroke-width="1.5" d="M2.75 6.977h15.5"/></svg>
